message-star-outline.svg

<svg fill="currentColor" viewBox="0 0 24 24"><path d="M20 2H4c-1.1 0-2 .9-2 2v18l4-4h14c1.1 0 2-.9 2-2V4c0-1.1-.9-2-2-2m0 14H5.2L4 17.2V4h16zm-8-3.6 2.6 1.6-.7-3 2.3-2-3-.3L12 6l-1.2 2.8-3 .2 2.3 2-.7 3z"/></svg>

<svg  viewBox="0 0 24 24" fill="currentColor"><path  d="M20 2H4C2.9 2 2 2.9 2 4V22L6 18H20C21.1 18 22 17.1 22 16V4C22 2.9 21.1 2 20 2M20 16H5.2L4 17.2V4H20V16M12 12.4L14.6 14L13.9 11L16.2 9L13.2 8.7L12 6L10.8 8.8L7.8 9L10.1 11L9.4 14L12 12.4Z"/></svg>
